Avidclan_Website/assets/images/icons/faster-deployment-ic.svg

<?xml version="1.0" encoding="utf-8"?>
<!-- Generator: Adobe Illustrator 24.1.1, SVG Export Plug-In . SVG Version: 6.00 Build 0)  -->
<svg version="1.1" id="Layer_1" xmlns="http://www.w3.org/2000/svg" xmlns:xlink="http://www.w3.org/1999/xlink" x="0px" y="0px"
	 viewBox="0 0 444 371.8" style="enable-background:new 0 0 444 371.8;" xml:space="preserve">
<style type="text/css">
	.st0{fill:#007AFB;}
</style>
<g>
	<path class="st0" d="M438.4,49.5H244.2c-3.1,0-5.6,2.5-5.6,5.6c0,3.1,2.5,5.6,5.6,5.6h188.7V105H277.5c-3.1,0-5.6,2.5-5.6,5.6
		s2.5,5.6,5.6,5.6h155.4v195.2l-336,0v-8.8c0-3.1-2.5-5.6-5.6-5.6s-5.6,2.5-5.6,5.6v14.4c0,3.1,2.5,5.6,5.6,5.6h347.1
		c3.1,0,5.6-2.5,5.6-5.6V55C444,52,441.5,49.5,438.4,49.5L438.4,49.5z"/>
	<path class="st0" d="M422.4,82.8c0-8.8-7.1-15.9-15.8-15.9c-8.7,0-15.8,7.1-15.8,15.9s7.1,15.9,15.8,15.9
		C415.3,98.6,422.4,91.5,422.4,82.8z M401.9,82.8c0-2.6,2.1-4.8,4.7-4.8c2.6,0,4.7,2.2,4.7,4.8s-2.1,4.8-4.7,4.8
		C404,87.5,401.9,85.4,401.9,82.8z"/>
	<path class="st0" d="M382.4,82.8c0-8.8-7.1-15.9-15.8-15.9c-8.7,0-15.8,7.1-15.8,15.9s7.1,15.9,15.8,15.9
		C375.3,98.6,382.4,91.5,382.4,82.8z M361.9,82.8c0-2.6,2.1-4.8,4.7-4.8s4.7,2.2,4.7,4.8s-2.1,4.8-4.7,4.8S361.9,85.4,361.9,82.8z"
		/>
	<path class="st0" d="M342.4,82.8c0-8.8-7.1-15.9-15.8-15.9c-8.7,0-15.8,7.1-15.8,15.9s7.1,15.9,15.8,15.9
		C335.3,98.6,342.4,91.5,342.4,82.8z M321.9,82.8c0-2.6,2.1-4.8,4.7-4.8s4.7,2.2,4.7,4.8s-2.1,4.8-4.7,4.8S321.9,85.4,321.9,82.8z"
		/>
	<path class="st0" d="M264.3,97.5c-0.9-2-2.9-3.4-5.1-3.4h-68.9L248,8.7c1.1-1.7,1.3-3.9,0.3-5.7c-1-1.8-2.8-2.9-4.9-2.9L116.5,0
		c-2.1,0-4,1.2-5,3L86.8,52.2c0,0.1-0.3,0.6-0.4,0.6l-0.1,0.2c0,0,0,0.1-0.1,0.1L32.3,159.9c-0.9,1.7-0.8,3.8,0.2,5.4
		c1,1.6,2.8,2.6,4.7,2.6h70L0.7,363.6c-1.3,2.4-0.6,5.5,1.6,7.1c1,0.7,2.1,1.1,3.3,1.1c1.5,0,2.9-0.6,4-1.7l253.7-266.6
		C264.8,101.9,265.2,99.5,264.3,97.5L264.3,97.5z M30.6,331.9l90.8-166.8c0.9-1.7,0.9-3.8-0.1-5.5s-2.8-2.7-4.8-2.7H46.3l49.9-98.7
		c0,0,0,0,0,0l0.2-0.4c0,0,0-0.1,0-0.1c0-0.1,0.1-0.1,0.1-0.2L120,11.1h113l-57.5,85.2c0,0.1-0.3,0.4-0.3,0.5
		c-1,1.7-1.1,3.9-0.1,5.6c1,1.7,2.8,2.8,4.8,2.8h66.3L30.6,331.9z"/>
	<path class="st0" d="M294.3,228c1.1-1.1,1.7-2.5,1.7-3.9c0-1.4-0.6-2.9-1.7-3.9c-2.1-2.1-5.8-2.1-7.8,0c-1.1,1.1-1.6,2.5-1.6,3.9
		c0,1.4,0.6,2.9,1.6,3.9c1.1,1,2.4,1.6,3.9,1.6C291.8,229.7,293.3,229,294.3,228L294.3,228z"/>
	<path class="st0" d="M273.3,229.7c3.1,0,5.6-2.5,5.6-5.6s-2.5-5.6-5.6-5.6l-95.4,0c-1.5,0-3,0.6-4,1.7L127.7,269
		c-1.5,1.6-1.9,4-1.1,6c0.9,2,2.9,3.4,5.1,3.4h181.9c3.1,0,5.6-2.5,5.6-5.6v-48.7c0-3.1-2.5-5.6-5.6-5.6h-6.2
		c-3.1,0-5.6,2.5-5.6,5.6s2.5,5.6,5.6,5.6h0.6v37.6H144.6l35.7-37.6L273.3,229.7z"/>
	<path class="st0" d="M335.4,272.8c0,3.1,2.5,5.6,5.6,5.6h71.1c3.1,0,5.6-2.5,5.6-5.6v-48.7c0-3.1-2.5-5.6-5.6-5.6h-5.7
		c-3.1,0-5.6,2.5-5.6,5.6s2.5,5.6,5.6,5.6l0.1,37.6h-60v-37.6h25.1c3.1,0,5.6-2.5,5.6-5.6s-2.5-5.6-5.6-5.6H341
		c-3.1,0-5.6,2.5-5.6,5.6L335.4,272.8z"/>
	<path class="st0" d="M386.9,219c-0.7,0.3-1.3,0.7-1.8,1.2c-1.1,1.1-1.7,2.4-1.7,3.9c0,0.7,0.2,1.4,0.4,2.1c0.3,0.7,0.7,1.3,1.2,1.8
		c1,1,2.4,1.6,3.9,1.6c1.4,0,2.9-0.6,3.9-1.6c0.5-0.5,0.9-1.1,1.2-1.8c0.3-0.7,0.4-1.4,0.4-2.1c0-1.4-0.6-2.9-1.6-3.9
		c-0.5-0.5-1.1-0.9-1.8-1.2C389.8,218.4,388.2,218.4,386.9,219L386.9,219z"/>
	<path class="st0" d="M367.9,191.9c-0.3-0.1-0.7-0.2-1.1-0.3c-1.1-0.2-2.2-0.1-3.2,0.3c-0.7,0.3-1.3,0.7-1.8,1.2
		c-1.1,1-1.6,2.4-1.6,3.9c0,1.4,0.6,2.9,1.6,3.9c0.5,0.5,1.1,0.9,1.8,1.2c0.7,0.3,1.4,0.4,2.2,0.4c0.3,0,0.7-0.1,1.1-0.1
		c0.4-0.1,0.7-0.2,1.1-0.3c0.3-0.2,0.7-0.3,0.9-0.5c0.3-0.2,0.6-0.4,0.8-0.7c0.3-0.2,0.5-0.6,0.7-0.8c0.2-0.3,0.3-0.6,0.5-0.9
		c0.1-0.3,0.2-0.7,0.3-1.1c0.1-0.3,0.1-0.7,0.1-1.1c0-1.5-0.6-2.9-1.7-3.9c-0.2-0.3-0.5-0.5-0.8-0.7
		C368.6,192.2,368.2,192.1,367.9,191.9L367.9,191.9z"/>
	<path class="st0" d="M417.6,197v-64.9c0-3.1-2.5-5.6-5.6-5.6H341c-3.1,0-5.6,2.5-5.6,5.6V197c0,3.1,2.5,5.6,5.6,5.6h7.4
		c3.1,0,5.6-2.5,5.6-5.6s-2.5-5.6-5.6-5.6h-1.8v-53.8h60v53.8h-23.4c-3.1,0-5.6,2.5-5.6,5.6s2.5,5.6,5.6,5.6h28.9
		C415.2,202.6,417.6,200.1,417.6,197L417.6,197z"/>
	<path class="st0" d="M318.5,127.5h-67.9c-3.1,0-5.6,2.5-5.6,5.6s2.5,5.6,5.6,5.6h67.9c3.1,0,5.6-2.5,5.6-5.6
		S321.6,127.5,318.5,127.5z"/>
	<path class="st0" d="M318.5,159.2h-95.8c-3.1,0-5.6,2.5-5.6,5.6s2.5,5.6,5.6,5.6h95.8c3.1,0,5.6-2.5,5.6-5.6
		S321.6,159.2,318.5,159.2z"/>
	<path class="st0" d="M324.1,196.6c0-3.1-2.5-5.6-5.6-5.6H191.8c-3.1,0-5.6,2.5-5.6,5.6s2.5,5.6,5.6,5.6h126.7
		C321.6,202.1,324.1,199.7,324.1,196.6z"/>
</g>
</svg>

<svg width="444" height="372" viewBox="0 0 444 372" fill="none" xmlns="http://www.w3.org/2000/svg">
<g clip-path="url(#clip0_493_320)">
<path d="M438.4 49.5H244.2C241.1 49.5 238.6 52 238.6 55.1C238.6 58.2 241.1 60.7 244.2 60.7H432.9V105H277.5C274.4 105 271.9 107.5 271.9 110.6C271.9 113.7 274.4 116.2 277.5 116.2H432.9V311.4H96.9001V302.6C96.9001 299.5 94.4001 297 91.3001 297C88.2001 297 85.7001 299.5 85.7001 302.6V317C85.7001 320.1 88.2001 322.6 91.3001 322.6H438.4C441.5 322.6 444 320.1 444 317V55C444 52 441.5 49.5 438.4 49.5Z" fill="#0E53BE"/>
<path d="M422.4 82.8C422.4 74 415.3 66.9 406.6 66.9C397.9 66.9 390.8 74 390.8 82.8C390.8 91.6 397.9 98.7 406.6 98.7C415.3 98.6 422.4 91.5 422.4 82.8ZM401.9 82.8C401.9 80.2 404 78 406.6 78C409.2 78 411.3 80.2 411.3 82.8C411.3 85.4 409.2 87.6 406.6 87.6C404 87.5 401.9 85.4 401.9 82.8Z" fill="#0E53BE"/>
<path d="M382.4 82.8C382.4 74 375.3 66.9 366.6 66.9C357.9 66.9 350.8 74 350.8 82.8C350.8 91.6 357.9 98.7 366.6 98.7C375.3 98.6 382.4 91.5 382.4 82.8ZM361.9 82.8C361.9 80.2 364 78 366.6 78C369.2 78 371.3 80.2 371.3 82.8C371.3 85.4 369.2 87.6 366.6 87.6C364 87.6 361.9 85.4 361.9 82.8Z" fill="#0E53BE"/>
<path d="M342.4 82.8C342.4 74 335.3 66.9 326.6 66.9C317.9 66.9 310.8 74 310.8 82.8C310.8 91.6 317.9 98.7 326.6 98.7C335.3 98.6 342.4 91.5 342.4 82.8ZM321.9 82.8C321.9 80.2 324 78 326.6 78C329.2 78 331.3 80.2 331.3 82.8C331.3 85.4 329.2 87.6 326.6 87.6C324 87.6 321.9 85.4 321.9 82.8Z" fill="#0E53BE"/>
<path d="M264.3 97.5C263.4 95.5 261.4 94.1 259.2 94.1H190.3L248 8.7C249.1 7 249.3 4.8 248.3 3C247.3 1.2 245.5 0.1 243.4 0.1L116.5 0C114.4 0 112.5 1.2 111.5 3L86.8 52.2C86.8 52.3 86.5 52.8 86.4 52.8L86.3 53C86.3 53 86.3 53.1 86.2 53.1L32.3 159.9C31.4 161.6 31.5 163.7 32.5 165.3C33.5 166.9 35.3 167.9 37.2 167.9H107.2L0.700028 363.6C-0.599972 366 0.100028 369.1 2.30003 370.7C3.30003 371.4 4.40003 371.8 5.60003 371.8C7.10003 371.8 8.50003 371.2 9.60003 370.1L263.3 103.5C264.8 101.9 265.2 99.5 264.3 97.5ZM30.6 331.9L121.4 165.1C122.3 163.4 122.3 161.3 121.3 159.6C120.3 157.9 118.5 156.9 116.5 156.9H46.3L96.2 58.2L96.4 57.8V57.7C96.4 57.6 96.5 57.6 96.5 57.5L120 11.1H233L175.5 96.3C175.5 96.4 175.2 96.7 175.2 96.8C174.2 98.5 174.1 100.7 175.1 102.4C176.1 104.1 177.9 105.2 179.9 105.2H246.2L30.6 331.9Z" fill="#0E53BE"/>
<path d="M294.3 228C295.4 226.9 296 225.5 296 224.1C296 222.7 295.4 221.2 294.3 220.2C292.2 218.1 288.5 218.1 286.5 220.2C285.4 221.3 284.9 222.7 284.9 224.1C284.9 225.5 285.5 227 286.5 228C287.6 229 288.9 229.6 290.4 229.6C291.8 229.7 293.3 229 294.3 228Z" fill="#0E53BE"/>
<path d="M273.3 229.7C276.4 229.7 278.9 227.2 278.9 224.1C278.9 221 276.4 218.5 273.3 218.5H177.9C176.4 218.5 174.9 219.1 173.9 220.2L127.7 269C126.2 270.6 125.8 273 126.6 275C127.5 277 129.5 278.4 131.7 278.4H313.6C316.7 278.4 319.2 275.9 319.2 272.8V224.1C319.2 221 316.7 218.5 313.6 218.5H307.4C304.3 218.5 301.8 221 301.8 224.1C301.8 227.2 304.3 229.7 307.4 229.7H308V267.3H144.6L180.3 229.7H273.3Z" fill="#0E53BE"/>
<path d="M335.4 272.8C335.4 275.9 337.9 278.4 341 278.4H412.1C415.2 278.4 417.7 275.9 417.7 272.8V224.1C417.7 221 415.2 218.5 412.1 218.5H406.4C403.3 218.5 400.8 221 400.8 224.1C400.8 227.2 403.3 229.7 406.4 229.7L406.5 267.3H346.5V229.7H371.6C374.7 229.7 377.2 227.2 377.2 224.1C377.2 221 374.7 218.5 371.6 218.5H341C337.9 218.5 335.4 221 335.4 224.1V272.8Z" fill="#0E53BE"/>
<path d="M386.9 219C386.2 219.3 385.6 219.7 385.1 220.2C384 221.3 383.4 222.6 383.4 224.1C383.4 224.8 383.6 225.5 383.8 226.2C384.1 226.9 384.5 227.5 385 228C386 229 387.4 229.6 388.9 229.6C390.3 229.6 391.8 229 392.8 228C393.3 227.5 393.7 226.9 394 226.2C394.3 225.5 394.4 224.8 394.4 224.1C394.4 222.7 393.8 221.2 392.8 220.2C392.3 219.7 391.7 219.3 391 219C389.8 218.4 388.2 218.4 386.9 219Z" fill="#0E53BE"/>
<path d="M367.9 191.9C367.6 191.8 367.2 191.7 366.8 191.6C365.7 191.4 364.6 191.5 363.6 191.9C362.9 192.2 362.3 192.6 361.8 193.1C360.7 194.1 360.2 195.5 360.2 197C360.2 198.4 360.8 199.9 361.8 200.9C362.3 201.4 362.9 201.8 363.6 202.1C364.3 202.4 365 202.5 365.8 202.5C366.1 202.5 366.5 202.4 366.9 202.4C367.3 202.3 367.6 202.2 368 202.1C368.3 201.9 368.7 201.8 368.9 201.6C369.2 201.4 369.5 201.2 369.7 200.9C370 200.7 370.2 200.3 370.4 200.1C370.6 199.8 370.7 199.5 370.9 199.2C371 198.9 371.1 198.5 371.2 198.1C371.3 197.8 371.3 197.4 371.3 197C371.3 195.5 370.7 194.1 369.6 193.1C369.4 192.8 369.1 192.6 368.8 192.4C368.6 192.2 368.2 192.1 367.9 191.9Z" fill="#0E53BE"/>
<path d="M417.6 197V132.1C417.6 129 415.1 126.5 412 126.5H341C337.9 126.5 335.4 129 335.4 132.1V197C335.4 200.1 337.9 202.6 341 202.6H348.4C351.5 202.6 354 200.1 354 197C354 193.9 351.5 191.4 348.4 191.4H346.6V137.6H406.6V191.4H383.2C380.1 191.4 377.6 193.9 377.6 197C377.6 200.1 380.1 202.6 383.2 202.6H412.1C415.2 202.6 417.6 200.1 417.6 197Z" fill="#0E53BE"/>
<path d="M318.5 127.5H250.6C247.5 127.5 245 130 245 133.1C245 136.2 247.5 138.7 250.6 138.7H318.5C321.6 138.7 324.1 136.2 324.1 133.1C324.1 130 321.6 127.5 318.5 127.5Z" fill="#0E53BE"/>
<path d="M318.5 159.2H222.7C219.6 159.2 217.1 161.7 217.1 164.8C217.1 167.9 219.6 170.4 222.7 170.4H318.5C321.6 170.4 324.1 167.9 324.1 164.8C324.1 161.7 321.6 159.2 318.5 159.2Z" fill="#0E53BE"/>
<path d="M324.1 196.6C324.1 193.5 321.6 191 318.5 191H191.8C188.7 191 186.2 193.5 186.2 196.6C186.2 199.7 188.7 202.2 191.8 202.2H318.5C321.6 202.1 324.1 199.7 324.1 196.6Z" fill="#0E53BE"/>
</g>
<defs>
<clipPath id="clip0_493_320">
<rect width="444" height="371.8" fill="white"/>
</clipPath>
</defs>
</svg>
